apps/app.mento.org/public/tokens/cKES.svg

<svg width="40" height="40" viewBox="0 0 40 40" fill="none" xmlns="http://www.w3.org/2000/svg">
<g clip-path="url(#clip0_4004_57046)">
<path d="M20 40C31.0457 40 40 31.0457 40 20C40 8.95431 31.0457 0 20 0C8.95431 0 0 8.95431 0 20C0 31.0457 8.95431 40 20 40Z" fill="#7005FC"/>
<path d="M30.2887 23.0896H33.0247L25.8999 12.012L31.3911 6.52081H26.5287L20.4807 12.568V6.52081H17.0415V23.0896H20.4807V17.4312L21.7039 16.208L26.1167 23.0896H28.8527L23.3055 14.6064L24.2983 13.6136L30.2887 23.0896Z" fill="white"/>
<path d="M17.7647 30.7949C13.3055 30.7949 9.6607 27.1509 9.6607 22.6909C9.6607 19.5261 11.4831 16.7445 14.1679 15.4501V12.5253C9.9959 14.0117 6.9751 17.9917 6.9751 22.6909C6.9751 28.6373 11.8183 33.4805 17.7647 33.4805C22.4639 33.4805 26.4439 30.4597 27.9303 26.2877H25.0055C23.7111 28.9733 20.9295 30.7949 17.7647 30.7949Z" fill="white"/>
</g>
<defs>
<clipPath id="clip0_4004_57046">
<rect width="40" height="40" fill="white"/>
</clipPath>
</defs>
</svg>

<svg xmlns="http://www.w3.org/2000/svg" width="40" height="40" fill="none" viewBox="0 0 40 40"><g clip-path="url(#a)"><path fill="#7005FC" d="M20 40c11.046 0 20-8.954 20-20S31.046 0 20 0 0 8.954 0 20s8.954 20 20 20"/><path fill="#fff" d="M30.289 23.09h2.736L25.9 12.012l5.491-5.491H26.53l-6.048 6.047V6.521h-3.44V23.09h3.44v-5.66l1.223-1.223 4.413 6.882h2.736l-5.548-8.484.993-.992z"/><path fill="#fff" d="M17.765 30.795c-4.46 0-8.104-3.644-8.104-8.104 0-3.165 1.822-5.946 4.507-7.24v-2.926c-4.172 1.487-7.193 5.467-7.193 10.166 0 5.946 4.843 10.79 10.79 10.79 4.699 0 8.679-3.021 10.165-7.193h-2.924c-1.295 2.685-4.076 4.507-7.241 4.507"/></g><defs><clipPath id="a"><path fill="#fff" d="M0 0h40v40H0z"/></clipPath></defs></svg>
